assets/images/ui_ux_design.svg

<svg width="116" height="30" viewBox="0 0 116 30" fill="none" xmlns="http://www.w3.org/2000/svg">
<path d="M58.2744 23C58.2744 23 58.2744 18.5674 58.2744 9.70215C58.2744 9.70215 59.291 9.70215 61.3242 9.70215C63.498 9.70215 65.1152 10.0479 66.1758 10.7393C67.0605 11.3076 67.7402 12.0811 68.2148 13.0596C68.6953 14.0322 68.9355 15.1367 68.9355 16.373C68.9355 17.7441 68.6367 18.9541 68.0391 20.0029C67.4473 21.0459 66.624 21.8164 65.5693 22.3145C65.0303 22.5605 64.4385 22.7363 63.7939 22.8418C63.1553 22.9473 62.3496 23 61.377 23H58.2744ZM60.7441 20.6445H61.2803C62.6982 20.6445 63.7793 20.4453 64.5234 20.0469C65.1152 19.7246 65.584 19.2324 65.9297 18.5703C66.2754 17.9082 66.4482 17.1758 66.4482 16.373C66.4482 15.5 66.2607 14.7266 65.8857 14.0527C65.5107 13.373 64.9922 12.8691 64.3301 12.541C63.9551 12.3594 63.5361 12.2334 63.0732 12.1631C62.6104 12.0928 61.9951 12.0576 61.2275 12.0576H60.7441V20.6445ZM80.4053 19.0801C80.4053 19.0801 77.8301 19.0801 72.6797 19.0801C72.8262 19.6836 73.1455 20.1611 73.6377 20.5127C74.1299 20.8643 74.7305 21.04 75.4395 21.04C75.9316 21.04 76.3418 20.9668 76.6699 20.8203C76.998 20.668 77.3174 20.4102 77.6279 20.0469H80.2383C80.0977 20.498 79.834 20.9609 79.4473 21.4355C78.416 22.6367 77.0977 23.2373 75.4922 23.2373C74.7422 23.2373 74.0332 23.1025 73.3652 22.833C72.6973 22.5635 72.123 22.2002 71.6426 21.7432C71.168 21.2803 70.79 20.7295 70.5088 20.0908C70.2275 19.4463 70.0869 18.7666 70.0869 18.0518C70.0869 17.0908 70.3184 16.209 70.7812 15.4062C71.25 14.5977 71.8857 13.9619 72.6885 13.499C73.4971 13.0303 74.3818 12.7959 75.3428 12.7959C76.3213 12.7959 77.2031 13.0273 77.9883 13.4902C78.7734 13.9473 79.3857 14.5859 79.8252 15.4062C80.2705 16.2207 80.4932 17.1377 80.4932 18.1572C80.4932 18.4854 80.4639 18.793 80.4053 19.0801ZM72.6094 16.9707H78.1377C77.9854 16.332 77.6719 15.8428 77.1973 15.5029C76.7227 15.1631 76.1162 14.9932 75.3779 14.9932C74.6631 14.9932 74.0684 15.1631 73.5938 15.5029C73.125 15.8369 72.7969 16.3262 72.6094 16.9707ZM81.2666 19.8359C81.2666 19.8359 82.0693 19.8359 83.6748 19.8359C83.792 20.2578 83.9561 20.5654 84.167 20.7588C84.3779 20.9463 84.6592 21.04 85.0107 21.04C85.3271 21.04 85.585 20.9492 85.7842 20.7676C85.9893 20.5801 86.0918 20.3457 86.0918 20.0645C86.0918 19.7363 85.9395 19.4785 85.6348 19.291C85.5059 19.2148 85.3799 19.1504 85.2568 19.0977C85.1338 19.0449 84.8467 18.9424 84.3955 18.79C83.3994 18.4561 82.6875 18.0635 82.2598 17.6123C81.8379 17.1611 81.627 16.5693 81.627 15.8369C81.627 14.9814 81.9434 14.2607 82.5762 13.6748C83.2148 13.0889 84.0029 12.7959 84.9404 12.7959C85.4561 12.7959 85.9424 12.8984 86.3994 13.1035C86.8623 13.3086 87.252 13.5957 87.5684 13.9648C87.7852 14.2227 87.9404 14.4893 88.0342 14.7646C88.1338 15.04 88.1924 15.3799 88.21 15.7842H85.8721C85.7666 15.2568 85.4561 14.9932 84.9404 14.9932C84.6826 14.9932 84.4629 15.0752 84.2812 15.2393C84.1055 15.3975 84.0176 15.5967 84.0176 15.8369C84.0176 16.1416 84.1729 16.3643 84.4834 16.5049C84.6533 16.5752 85.0635 16.7129 85.7139 16.918C86.7217 17.2285 87.4336 17.6035 87.8496 18.043C88.2715 18.4824 88.4824 19.0801 88.4824 19.8359C88.4824 20.791 88.1367 21.5967 87.4453 22.2529C86.7539 22.9092 85.9102 23.2373 84.9141 23.2373C84.2988 23.2373 83.7188 23.1084 83.1738 22.8506C82.6348 22.5869 82.207 22.2354 81.8906 21.7959C81.7031 21.5264 81.5625 21.248 81.4688 20.9609C81.375 20.6738 81.3076 20.2988 81.2666 19.8359ZM89.8623 23C89.8623 23 89.8623 19.6748 89.8623 13.0244C89.8623 13.0244 90.6592 13.0244 92.2529 13.0244C92.2529 13.0244 92.2529 16.3496 92.2529 23C92.2529 23 91.4561 23 89.8623 23ZM89.8623 11.9521C89.8623 11.9521 89.8623 11.2021 89.8623 9.70215C89.8623 9.70215 90.6592 9.70215 92.2529 9.70215C92.2529 9.70215 92.2529 10.4521 92.2529 11.9521C92.2529 11.9521 91.4561 11.9521 89.8623 11.9521ZM101.903 13.0244C101.903 13.0244 102.665 13.0244 104.188 13.0244C104.188 13.0244 104.188 15.7197 104.188 21.1104C104.188 22.1006 104.101 22.9209 103.925 23.5713C103.755 24.2275 103.477 24.7871 103.09 25.25C102.141 26.4043 100.784 26.9814 99.0205 26.9814C97.8018 26.9814 96.7441 26.7031 95.8477 26.1465C94.9512 25.5898 94.3008 24.8105 93.8965 23.8086H96.6123C96.9639 24.1953 97.3301 24.4678 97.7109 24.626C98.0918 24.79 98.5605 24.8721 99.1172 24.8721C100.008 24.8721 100.685 24.6084 101.147 24.0811C101.61 23.5537 101.862 22.7539 101.903 21.6816C101.435 22.2324 100.945 22.6309 100.436 22.877C99.9316 23.1172 99.3281 23.2373 98.625 23.2373C97.6875 23.2373 96.8438 23.0117 96.0938 22.5605C95.3496 22.1094 94.7695 21.4824 94.3535 20.6797C93.9375 19.8711 93.7295 18.96 93.7295 17.9463C93.7295 16.4697 94.1953 15.2422 95.127 14.2637C96.0586 13.2852 97.2305 12.7959 98.6426 12.7959C100.072 12.7959 101.159 13.2939 101.903 14.29V13.0244ZM98.8799 14.9932C98.0596 14.9932 97.3975 15.2744 96.8936 15.8369C96.3955 16.3936 96.1465 17.1318 96.1465 18.0518C96.1465 18.96 96.3984 19.6865 96.9023 20.2314C97.4121 20.7705 98.0947 21.04 98.9502 21.04C99.8174 21.04 100.509 20.7676 101.024 20.2227C101.54 19.6719 101.798 18.9365 101.798 18.0166C101.798 17.1143 101.528 16.3848 100.989 15.8281C100.456 15.2715 99.7529 14.9932 98.8799 14.9932ZM106.14 23C106.14 23 106.14 19.6748 106.14 13.0244C106.14 13.0244 106.875 13.0244 108.346 13.0244C108.346 13.0244 108.346 13.3438 108.346 13.9824C108.785 13.5547 109.219 13.25 109.646 13.0684C110.074 12.8867 110.578 12.7959 111.158 12.7959C112.611 12.7959 113.672 13.3057 114.34 14.3252C114.58 14.7119 114.747 15.1484 114.841 15.6348C114.94 16.1211 114.99 16.7949 114.99 17.6562V23H112.6C112.6 23 112.6 21.374 112.6 18.1221C112.6 16.833 112.43 15.9863 112.09 15.582C111.768 15.1895 111.302 14.9932 110.692 14.9932C109.872 14.9932 109.277 15.3154 108.908 15.96C108.762 16.1885 108.662 16.4727 108.609 16.8125C108.557 17.1523 108.53 17.6475 108.53 18.2979V23C108.53 23 107.733 23 106.14 23Z" fill="#111111"/>
<path d="M6.08325 12.2535V15C6.08325 15.9156 6.63255 17.7465 8.82973 17.7465C11.0269 17.7465 11.5762 15.9156 11.5762 15V12.2535M15.6959 12.2535L17.7558 15M17.7558 15L19.8157 17.7465M17.7558 15L19.8157 12.2535M17.7558 15L15.6959 17.7465" stroke="black" stroke-width="1.83099" stroke-linecap="round" stroke-linejoin="round"/>
<path d="M29 15C29 22.732 22.732 29 15 29C7.26801 29 1 22.732 1 15C1 7.26801 7.26801 1 15 1C22.732 1 29 7.26801 29 15Z" stroke="black" stroke-width="2" stroke-linecap="round" stroke-linejoin="round"/>
<path d="M33.2429 12.2535V15C33.2429 15.9156 33.7922 17.7465 35.9894 17.7465C38.1866 17.7465 38.7359 15.9156 38.7359 15V12.2535M44 12.2535V15V17.7465" stroke="black" stroke-width="1.83099" stroke-linecap="round" stroke-linejoin="round"/>
<path d="M51 15C51 22.732 44.732 29 37 29C29.268 29 23 22.732 23 15C23 7.26801 29.268 1 37 1C44.732 1 51 7.26801 51 15Z" stroke="black" stroke-width="2" stroke-linecap="round" stroke-linejoin="round"/>
</svg>

<svg width="116" height="30" fill="none" xmlns="http://www.w3.org/2000/svg"><path d="M58.274 23V9.702h3.05c2.174 0 3.791.346 4.852 1.037a5.603 5.603 0 0 1 2.039 2.32c.48.973.72 2.078.72 3.314 0 1.371-.298 2.581-.896 3.63-.592 1.043-1.415 1.813-2.47 2.311a6.967 6.967 0 0 1-1.775.528c-.639.105-1.444.158-2.417.158h-3.103Zm2.47-2.355h.536c1.418 0 2.5-.2 3.243-.598.592-.322 1.061-.815 1.407-1.477a4.675 4.675 0 0 0 .518-2.197c0-.873-.187-1.646-.562-2.32a3.552 3.552 0 0 0-1.556-1.512 4.374 4.374 0 0 0-1.257-.378c-.463-.07-1.078-.105-1.846-.105h-.483v8.587Zm19.661-1.565H72.68c.146.604.465 1.081.958 1.433.492.351 1.093.527 1.801.527.493 0 .903-.073 1.23-.22.329-.152.648-.41.959-.773h2.61c-.14.451-.404.914-.79 1.389-1.032 1.2-2.35 1.801-3.956 1.801a5.63 5.63 0 0 1-2.127-.404 5.4 5.4 0 0 1-1.722-1.09 5.217 5.217 0 0 1-1.134-1.652 5.043 5.043 0 0 1-.422-2.04 5.203 5.203 0 0 1 2.602-4.552 5.2 5.2 0 0 1 2.654-.703c.978 0 1.86.231 2.645.694a4.783 4.783 0 0 1 1.837 1.916c.445.815.668 1.732.668 2.751 0 .328-.03.636-.088.923Zm-7.796-2.11h5.529c-.153-.638-.466-1.127-.94-1.467-.475-.34-1.082-.51-1.82-.51-.715 0-1.31.17-1.784.51-.469.334-.797.823-.985 1.468Zm8.658 2.866h2.408c.117.422.281.73.492.923.21.187.492.281.844.281.316 0 .574-.09.773-.272a.913.913 0 0 0 .308-.704c0-.328-.153-.585-.457-.773a3.287 3.287 0 0 0-.378-.193c-.123-.053-.41-.156-.862-.308-.996-.334-1.707-.726-2.135-1.178-.422-.45-.633-1.043-.633-1.775 0-.856.316-1.576.95-2.162.638-.586 1.426-.88 2.363-.88.516 0 1.002.103 1.46.309a3.25 3.25 0 0 1 1.168.86 2.5 2.5 0 0 1 .466.8c.1.276.158.616.176 1.02h-2.338c-.105-.527-.416-.79-.932-.79a.949.949 0 0 0-.659.245.77.77 0 0 0-.263.598c0 .305.155.527.465.668.17.07.58.208 1.23.413 1.009.31 1.72.686 2.137 1.125.422.44.632 1.037.632 1.793 0 .955-.345 1.76-1.037 2.417-.691.656-1.535.984-2.53.984a4.019 4.019 0 0 1-1.741-.386 3.368 3.368 0 0 1-1.283-1.055 3.198 3.198 0 0 1-.422-.835c-.094-.287-.161-.662-.202-1.125ZM89.862 23v-9.976h2.39V23h-2.39Zm0-11.048v-2.25h2.39v2.25h-2.39Zm12.041 1.072h2.285v8.086c0 .99-.087 1.81-.263 2.461-.17.656-.448 1.216-.835 1.679-.949 1.154-2.306 1.731-4.07 1.731-1.218 0-2.276-.278-3.172-.835a4.785 4.785 0 0 1-1.951-2.337h2.715c.352.386.718.659 1.099.817.38.164.85.246 1.406.246.891 0 1.568-.264 2.03-.79.463-.528.715-1.328.756-2.4-.468.55-.958.949-1.467 1.195-.504.24-1.108.36-1.811.36-.938 0-1.781-.225-2.531-.676a4.652 4.652 0 0 1-1.74-1.881c-.416-.809-.624-1.72-.624-2.734 0-1.476.465-2.704 1.397-3.682.932-.979 2.104-1.468 3.516-1.468 1.429 0 2.516.498 3.26 1.494v-1.266Zm-3.023 1.97c-.82 0-1.483.28-1.986.843-.499.557-.748 1.295-.748 2.215 0 .908.252 1.634.756 2.18.51.538 1.193.808 2.048.808.867 0 1.559-.272 2.074-.817.516-.551.774-1.287.774-2.206 0-.903-.27-1.632-.809-2.189-.533-.556-1.236-.835-2.11-.835ZM106.14 23v-9.976h2.206v.958c.439-.427.873-.732 1.3-.914.428-.181.932-.272 1.512-.272 1.453 0 2.514.51 3.182 1.53.24.386.407.822.501 1.309.099.486.149 1.16.149 2.021V23h-2.39v-4.878c0-1.289-.17-2.136-.51-2.54-.322-.393-.788-.589-1.398-.589-.82 0-1.415.322-1.784.967a2.199 2.199 0 0 0-.299.852c-.052.34-.079.835-.079 1.486V23h-2.39Z" fill="#111"/><path d="M6.083 12.254V15c0 .916.55 2.747 2.747 2.747s2.746-1.831 2.746-2.747v-2.746m4.12 0L17.756 15m0 0 2.06 2.747M17.756 15l2.06-2.746M17.756 15l-2.06 2.747" stroke="#000" stroke-width="1.831" stroke-linecap="round" stroke-linejoin="round"/><path d="M29 15c0 7.732-6.268 14-14 14S1 22.732 1 15 7.268 1 15 1s14 6.268 14 14Z" stroke="#000" stroke-width="2" stroke-linecap="round" stroke-linejoin="round"/><path d="M33.243 12.254V15c0 .916.55 2.747 2.746 2.747 2.198 0 2.747-1.831 2.747-2.747v-2.746m5.264 0v5.493" stroke="#000" stroke-width="1.831" stroke-linecap="round" stroke-linejoin="round"/><path d="M51 15c0 7.732-6.268 14-14 14s-14-6.268-14-14S29.268 1 37 1s14 6.268 14 14Z" stroke="#000" stroke-width="2" stroke-linecap="round" stroke-linejoin="round"/></svg>
